settings-helper.svg

<svg fill="currentColor" viewBox="0 0 24 24"><path d="M7 22h2v2H7zm4 0h2v2h-2zm4 0h2v2h-2z"/></svg>

<svg  viewBox="0 0 24 24" fill="currentColor"><path  d="M7,22H9V24H7V22M11,22H13V24H11V22M15,22H17V24H15V22Z"/></svg>
